icons/system-pointing.svg

<svg viewBox="0 0 18 18"
     fill="currentColor"
     xmlns="http://www.w3.org/2000/svg">
    <g id="pointing"
       filter="url(#filter0_d_0_19)">
        <path id="Shape"
              d="M4.76999 12.28C4.48999 11.92 4.13999 11.19 3.52999 10.28C3.17999 9.78 2.31999 8.83 2.05999 8.34C1.87257 8.04223 1.81818 7.67966 1.90999 7.34C2.06695 6.69421 2.67956 6.26582 3.33999 6.34C3.8508 6.44261 4.32022 6.69297 4.68999 7.06C4.94817 7.30317 5.18566 7.56742 5.39999 7.85C5.55999 8.05 5.59999 8.13 5.77999 8.36C5.95999 8.59 6.07999 8.82 5.98999 8.48C5.91999 7.98 5.79999 7.14 5.62999 6.39C5.49999 5.82 5.46999 5.73 5.34999 5.3C5.22999 4.87 5.15999 4.51 5.02999 4.02C4.91116 3.53857 4.8177 3.05123 4.74999 2.56C4.62395 1.9317 4.71565 1.27921 5.00999 0.71C5.35939 0.38137 5.87192 0.294632 6.30999 0.49C6.75059 0.815336 7.0791 1.26965 7.24999 1.79C7.51206 2.43039 7.68696 3.10306 7.76999 3.79C7.92999 4.79 8.23999 6.25 8.24999 6.55C8.24999 6.18 8.17999 5.4 8.24999 5.05C8.31935 4.68512 8.57295 4.38231 8.91999 4.25C9.2178 4.15863 9.53284 4.13808 9.83999 4.19C10.15 4.25482 10.4247 4.43315 10.61 4.69C10.8417 5.27339 10.9703 5.8926 10.99 6.52C11.0168 5.97059 11.1108 5.42653 11.27 4.9C11.4371 4.66455 11.6811 4.49479 11.96 4.42C12.2906 4.35956 12.6294 4.35956 12.96 4.42C13.2311 4.51063 13.4682 4.68152 13.64 4.91C13.8518 5.44035 13.98 6.00034 14.02 6.57C14.02 6.71 14.09 6.18 14.31 5.83C14.4243 5.4906 14.711 5.23797 15.0621 5.16728C15.4132 5.09658 15.7754 5.21857 16.0121 5.48728C16.2489 5.75599 16.3243 6.1306 16.21 6.47C16.21 7.12 16.21 7.09 16.21 7.53C16.21 7.97 16.21 8.36 16.21 8.73C16.1736 9.31518 16.0933 9.89681 15.97 10.47C15.796 10.9771 15.5537 11.4582 15.25 11.9C14.7644 12.44 14.3632 13.0502 14.06 13.71C13.9848 14.0378 13.9512 14.3738 13.96 14.71C13.959 15.0206 13.9993 15.33 14.08 15.63C13.6711 15.6732 13.2589 15.6732 12.85 15.63C12.46 15.57 11.98 14.79 11.85 14.55C11.7857 14.4211 11.654 14.3397 11.51 14.3397C11.366 14.3397 11.2343 14.4211 11.17 14.55C10.95 14.93 10.46 15.62 10.12 15.66C9.44999 15.74 8.06999 15.66 6.97999 15.66C6.97999 15.66 7.15999 14.66 6.74999 14.3C6.33999 13.94 5.91999 13.52 5.60999 13.24L4.76999 12.28Z"
              fill="white" />
        <path id="Shape_2"
              fill-rule="evenodd"
              clip-rule="evenodd"
              d="M4.76999 12.28C4.48999 11.92 4.13999 11.19 3.52999 10.28C3.17999 9.78 2.31999 8.83 2.05999 8.34C1.87257 8.04223 1.81818 7.67966 1.90999 7.34C2.06695 6.69421 2.67956 6.26582 3.33999 6.34C3.8508 6.44261 4.32022 6.69297 4.68999 7.06C4.94817 7.30317 5.18566 7.56742 5.39999 7.85C5.55999 8.05 5.59999 8.13 5.77999 8.36C5.95999 8.59 6.07999 8.82 5.98999 8.48C5.91999 7.98 5.79999 7.14 5.62999 6.39C5.49999 5.82 5.46999 5.73 5.34999 5.3C5.22999 4.87 5.15999 4.51 5.02999 4.02C4.91116 3.53857 4.8177 3.05123 4.74999 2.56C4.62395 1.9317 4.71565 1.27921 5.00999 0.71C5.35939 0.38137 5.87192 0.294632 6.30999 0.49C6.75059 0.815336 7.0791 1.26965 7.24999 1.79C7.51206 2.43039 7.68696 3.10306 7.76999 3.79C7.92999 4.79 8.23999 6.25 8.24999 6.55C8.24999 6.18 8.17999 5.4 8.24999 5.05C8.31935 4.68512 8.57295 4.38231 8.91999 4.25C9.2178 4.15863 9.53284 4.13808 9.83999 4.19C10.15 4.25482 10.4247 4.43315 10.61 4.69C10.8417 5.27339 10.9703 5.8926 10.99 6.52C11.0168 5.97059 11.1108 5.42653 11.27 4.9C11.4371 4.66455 11.6811 4.49479 11.96 4.42C12.2906 4.35956 12.6294 4.35956 12.96 4.42C13.2311 4.51063 13.4682 4.68152 13.64 4.91C13.8518 5.44035 13.98 6.00034 14.02 6.57C14.02 6.71 14.09 6.18 14.31 5.83C14.4243 5.4906 14.711 5.23797 15.0621 5.16728C15.4132 5.09658 15.7754 5.21857 16.0121 5.48728C16.2489 5.75599 16.3243 6.1306 16.21 6.47C16.21 7.12 16.21 7.09 16.21 7.53C16.21 7.97 16.21 8.36 16.21 8.73C16.1736 9.31518 16.0933 9.89681 15.97 10.47C15.796 10.9771 15.5537 11.4582 15.25 11.9C14.7644 12.44 14.3632 13.0502 14.06 13.71C13.9848 14.0378 13.9512 14.3738 13.96 14.71C13.959 15.0206 13.9993 15.33 14.08 15.63C13.6711 15.6732 13.2589 15.6732 12.85 15.63C12.46 15.57 11.98 14.79 11.85 14.55C11.7857 14.4211 11.654 14.3397 11.51 14.3397C11.366 14.3397 11.2343 14.4211 11.17 14.55C10.95 14.93 10.46 15.62 10.12 15.66C9.44999 15.74 8.06999 15.66 6.97999 15.66C6.97999 15.66 7.15999 14.66 6.74999 14.3C6.33999 13.94 5.91999 13.52 5.60999 13.24L4.76999 12.28Z"
              stroke="#222124"
              stroke-width="0.75"
              stroke-linecap="round"
              stroke-linejoin="round" />
        <path id="Shape_3"
              d="M13.25 12.8259V9.37411C13.25 9.16749 13.0821 9 12.875 9C12.6679 9 12.5 9.16749 12.5 9.37411V12.8259C12.5 13.0325 12.6679 13.2 12.875 13.2C13.0821 13.2 13.25 13.0325 13.25 12.8259Z"
              fill="#222124" />
        <path id="Shape_4"
              d="M11.27 12.8246L11.25 9.37107C11.2488 9.16495 11.0799 8.99882 10.8728 9.00001C10.6657 9.00119 10.4988 9.16925 10.5 9.37537L10.52 12.8289C10.5212 13.035 10.6901 13.2012 10.8972 13.2C11.1043 13.1988 11.2712 13.0307 11.27 12.8246Z"
              fill="#222124" />
        <path id="Shape_5"
              d="M8.50001 9.37899L8.52001 12.8254C8.52121 13.0335 8.69008 13.2012 8.89719 13.2C9.10429 13.1988 9.2712 13.0291 9.26999 12.821L9.24999 9.3746C9.24879 9.1665 9.07992 8.99879 8.87281 9.00001C8.66571 9.00122 8.4988 9.1709 8.50001 9.37899Z"
              fill="#222124" />
    </g>
    <defs>
        <filter id="filter0_d_0_19"
                x="0.691333"
                y="0.0117836"
                width="16.7461"
                height="17.8588"
                filterUnits="userSpaceOnUse"
                color-interpolation-filters="sRGB">
            <feFlood flood-opacity="0"
                     result="BackgroundImageFix" />
            <feColorMatrix in="SourceAlpha"
                           type="matrix"
                           values="0 0 0 0 0 0 0 0 0 0 0 0 0 0 0 0 0 0 127 0"
                           result="hardAlpha" />
            <feOffset dy="1" />
            <feGaussianBlur stdDeviation="0.4" />
            <feColorMatrix type="matrix"
                           values="0 0 0 0 0 0 0 0 0 0 0 0 0 0 0 0 0 0 0.5 0" />
            <feBlend mode="normal"
                     in2="BackgroundImageFix"
                     result="effect1_dropShadow_0_19" />
            <feBlend mode="normal"
                     in="SourceGraphic"
                     in2="effect1_dropShadow_0_19"
                     result="shape" />
        </filter>
    </defs>
</svg>

<svg xmlns="http://www.w3.org/2000/svg" fill="currentColor" viewBox="0 0 18 18"><g filter="url(#a)"><path fill="#fff" d="M4.77 12.28c-.28-.36-.63-1.09-1.24-2-.35-.5-1.21-1.45-1.47-1.94a1.26 1.26 0 0 1-.15-1 1.32 1.32 0 0 1 1.43-1c.51.103.98.353 1.35.72q.388.365.71.79c.16.2.2.28.38.51s.3.46.21.12c-.07-.5-.19-1.34-.36-2.09-.13-.57-.16-.66-.28-1.09s-.19-.79-.32-1.28a14 14 0 0 1-.28-1.46A2.82 2.82 0 0 1 5.01.71a1.19 1.19 0 0 1 1.3-.22c.44.325.77.78.94 1.3a7.7 7.7 0 0 1 .52 2c.16 1 .47 2.46.48 2.76 0-.37-.07-1.15 0-1.5a1.07 1.07 0 0 1 .67-.8 2 2 0 0 1 .92-.06c.31.065.585.243.77.5.232.583.36 1.203.38 1.83a6.7 6.7 0 0 1 .28-1.62 1.24 1.24 0 0 1 .69-.48c.33-.06.67-.06 1 0 .271.09.508.262.68.49.212.53.34 1.09.38 1.66 0 .14.07-.39.29-.74a1.002 1.002 0 1 1 1.9.64v2.26a12 12 0 0 1-.24 1.74 6 6 0 0 1-.72 1.43 7.2 7.2 0 0 0-1.19 1.81 4 4 0 0 0-.1 1c-.001.31.04.62.12.92a6 6 0 0 1-1.23 0c-.39-.06-.87-.84-1-1.08a.38.38 0 0 0-.68 0c-.22.38-.71 1.07-1.05 1.11-.67.08-2.05 0-3.14 0 0 0 .18-1-.23-1.36s-.83-.78-1.14-1.06z"/><path fill-rule="evenodd" stroke="#222124" stroke-linecap="round" stroke-linejoin="round" stroke-width=".75" d="M4.77 12.28c-.28-.36-.63-1.09-1.24-2-.35-.5-1.21-1.45-1.47-1.94a1.26 1.26 0 0 1-.15-1 1.32 1.32 0 0 1 1.43-1c.51.103.98.353 1.35.72q.388.365.71.79c.16.2.2.28.38.51s.3.46.21.12c-.07-.5-.19-1.34-.36-2.09-.13-.57-.16-.66-.28-1.09s-.19-.79-.32-1.28a14 14 0 0 1-.28-1.46A2.82 2.82 0 0 1 5.01.71a1.19 1.19 0 0 1 1.3-.22c.44.325.77.78.94 1.3a7.7 7.7 0 0 1 .52 2c.16 1 .47 2.46.48 2.76 0-.37-.07-1.15 0-1.5a1.07 1.07 0 0 1 .67-.8 2 2 0 0 1 .92-.06c.31.065.585.243.77.5.232.583.36 1.203.38 1.83a6.7 6.7 0 0 1 .28-1.62 1.24 1.24 0 0 1 .69-.48c.33-.06.67-.06 1 0 .271.09.508.262.68.49.212.53.34 1.09.38 1.66 0 .14.07-.39.29-.74a1.002 1.002 0 1 1 1.9.64v2.26a12 12 0 0 1-.24 1.74 6 6 0 0 1-.72 1.43 7.2 7.2 0 0 0-1.19 1.81 4 4 0 0 0-.1 1c-.001.31.04.62.12.92a6 6 0 0 1-1.23 0c-.39-.06-.87-.84-1-1.08a.38.38 0 0 0-.68 0c-.22.38-.71 1.07-1.05 1.11-.67.08-2.05 0-3.14 0 0 0 .18-1-.23-1.36s-.83-.78-1.14-1.06z" clip-rule="evenodd"/><path fill="#222124" d="M13.25 12.826V9.374a.375.375 0 0 0-.75 0v3.452a.375.375 0 0 0 .75 0M11.27 12.825l-.02-3.454a.374.374 0 0 0-.75.004l.02 3.454a.374.374 0 0 0 .75-.004M8.5 9.379l.02 3.446a.376.376 0 1 0 .75-.004l-.02-3.446a.376.376 0 1 0-.75.004"/></g><defs><filter id="a" width="16.746" height="17.859" x=".691" y=".012" color-interpolation-filters="sRGB" filterUnits="userSpaceOnUse"><feFlood flood-opacity="0" result="BackgroundImageFix"/><feColorMatrix in="SourceAlpha" result="hardAlpha" values="0 0 0 0 0 0 0 0 0 0 0 0 0 0 0 0 0 0 127 0"/><feOffset dy="1"/><feGaussianBlur stdDeviation=".4"/><feColorMatrix values="0 0 0 0 0 0 0 0 0 0 0 0 0 0 0 0 0 0 0.5 0"/><feBlend in2="BackgroundImageFix" result="effect1_dropShadow_0_19"/><feBlend in="SourceGraphic" in2="effect1_dropShadow_0_19" result="shape"/></filter></defs></svg>
